static/assets/template/assets/img/icons/clothing/tie.svg

<svg viewBox="0 0 43.76 116" xmlns="http://www.w3.org/2000/svg"><path d="m29.84 20h-15.91l-9.93 74 17.9 18 17.89-18zm-17.9-16 1.74 14h16.41l1.74-14zm30.66 92.83-17.9 18a4 4 0 0 1 -5.63 0l-17.9-18a4 4 0 0 1 -1.17-3.37l9.92-73.46-1.92-15.5a4 4 0 0 1 1-3.15 4 4 0 0 1 3-1.35h19.83a4 4 0 0 1 3 1.35 4 4 0 0 1 1 3.15l-1.98 15.5 9.88 73.48a4 4 0 0 1 -1.13 3.35z" fill-rule="evenodd"/></svg>

<svg xmlns="http://www.w3.org/2000/svg" viewBox="0 0 43.76 116"><defs><style>.cls-1{fill-rule:evenodd;}</style></defs><title>tie</title><g id="Layer_2" data-name="Layer 2"><g id="Layer"><path class="cls-1" d="M29.84,20H13.93L4,94l17.9,18L39.79,94ZM11.94,4l1.74,14H30.09L31.83,4ZM42.6,96.83l-17.9,18a4,4,0,0,1-5.63,0l-17.9-18A4,4,0,0,1,0,93.46L9.92,20,8,4.5A4,4,0,0,1,9,1.35a4,4,0,0,1,3-1.35H31.83a4,4,0,0,1,3,1.35,4,4,0,0,1,1,3.15L33.85,20l9.88,73.48A4,4,0,0,1,42.6,96.83Z"/></g></g></svg>
